symbolic/22x22/apps/dotpeek.svg

<svg xmlns="http://www.w3.org/2000/svg" width="22" height="22" version="1">
 <path style="fill:#cf4f8c" d="M 11,1 H 2 C 1.446,1 1,1.446 1,2 v 9 h 10 z"/>
 <path style="fill:#14ddb1" d="m 11,1 h 9 c 0.554,0 1,0.446 1,1 v 9 H 11 Z"/>
 <path style="fill:#14ddb1" d="M 11,21 H 2 C 1.446,21 1,20.554 1,20 v -9 h 10 z"/>
 <path style="fill:#6655e4" d="m 11,21 h 9 c 0.554,0 1,-0.446 1,-1 V 11 H 11 Z"/>
 <path style="opacity:0.2;fill:#ffffff" d="M 2,1 C 1.446,1 1,1.446 1,2 v 0.5 c 0,-0.554 0.446,-1 1,-1 h 18 c 0.554,0 1,0.446 1,1 V 2 C 21,1.446 20.554,1 20,1 Z"/>
 <path style="opacity:0.2" d="m 2,21.5 c -0.554,0 -1,-0.446 -1,-1 V 20 c 0,0.554 0.446,1 1,1 h 18 c 0.554,0 1,-0.446 1,-1 v 0.5 c 0,0.554 -0.446,1 -1,1 z"/>
 <rect style="fill:#3f3f3f" width="14" height="14" x="4" y="4"/>
 <path style="opacity:0.2;fill:none;stroke:#000000;stroke-linecap:round" d="M 6.5071212,14.99995 H 10.507121"/>
 <path style="fill:none;stroke:#ffffff;stroke-linecap:round" d="M 6.5071212,14.5 H 10.507121"/>
 <path style="opacity:0.2;fill:none;stroke:#000000;stroke-width:0.99999994;stroke-linecap:round;stroke-linejoin:bevel" d="m 6.5071212,10.99995 c 0,0 2.021891,0.175125 1.9999995,-1.999999 C 8.4852307,6.824819 6.5071212,6.9999495 6.5071212,6.9999495 m -0.00705,3.9967935 V 6.996744"/>
 <path style="fill:none;stroke:#ffffff;stroke-width:0.99999994;stroke-linecap:round;stroke-linejoin:bevel" d="m 6.5071212,10.5 c 0,0 2.021891,0.175125 1.9999995,-1.999999 C 8.4852307,6.324869 6.5071212,6.4999995 6.5071212,6.4999995 m -0.00705,3.9967935 V 6.496794"/>
 <path style="opacity:0.2;fill:none;stroke:#000000;stroke-width:0.99999994;stroke-linecap:round;stroke-linejoin:bevel" d="m 10.507072,8.9999 c 0,0 2.000001,0.23225 2.000001,-0.9999985 0,-1.2322505 -2.000001,-1.0000005 -2.000001,-1.0000005 m 4.9e-5,4.00005 V 6.99995"/>
 <path style="fill:none;stroke:#ffffff;stroke-width:0.99999994;stroke-linecap:round;stroke-linejoin:bevel" d="m 10.507072,8.49995 c 0,0 2.000001,0.23225 2.000001,-0.9999985 0,-1.2322505 -2.000001,-1.0000005 -2.000001,-1.0000005 m 4.9e-5,4.00005 V 6.5"/>
</svg>

<svg xmlns="http://www.w3.org/2000/svg" width="22" height="22" version="1"><path style="fill:#cf4f8c" d="M11 1H2c-.554 0-1 .446-1 1v9h10z"/><path style="fill:#14ddb1" d="M11 1h9c.554 0 1 .446 1 1v9H11zM11 21H2c-.554 0-1-.446-1-1v-9h10z"/><path style="fill:#6655e4" d="M11 21h9c.554 0 1-.446 1-1v-9H11z"/><path style="opacity:.2;fill:#fff" d="M2 1c-.554 0-1 .446-1 1v.5c0-.554.446-1 1-1h18c.554 0 1 .446 1 1V2c0-.554-.446-1-1-1z"/><path style="opacity:.2" d="M2 21.5c-.554 0-1-.446-1-1V20c0 .554.446 1 1 1h18c.554 0 1-.446 1-1v.5c0 .554-.446 1-1 1z"/><path style="fill:#3f3f3f" d="M4 4h14v14H4z"/><path style="opacity:.2;fill:none;stroke:#000;stroke-linecap:round" d="M6.507 15h4"/><path style="fill:none;stroke:#fff;stroke-linecap:round" d="M6.507 14.5h4"/><path style="opacity:.2;fill:none;stroke:#000;stroke-width:.99999994;stroke-linecap:round;stroke-linejoin:bevel" d="M6.507 11s2.022.175 2-2c-.022-2.175-2-2-2-2M6.5 10.997v-4"/><path style="fill:none;stroke:#fff;stroke-width:.99999994;stroke-linecap:round;stroke-linejoin:bevel" d="M6.507 10.5s2.022.175 2-2c-.022-2.175-2-2-2-2M6.5 10.497v-4"/><path style="opacity:.2;fill:none;stroke:#000;stroke-width:.99999994;stroke-linecap:round;stroke-linejoin:bevel" d="M10.507 9s2 .232 2-1-2-1-2-1m0 4V7"/><path style="fill:none;stroke:#fff;stroke-width:.99999994;stroke-linecap:round;stroke-linejoin:bevel" d="M10.507 8.5s2 .232 2-1-2-1-2-1m0 4v-4"/></svg>
